X:1
T:Banks of the Little Eau Pleine
M:3/4
L:1/4
K:C
C/2-E/2| G G G| G A G| E C2-| C zC/2-E/2| G G A| G D E| C3-| C zC/2-E/2|\
 G G3/2 G/2| G A G| E C2-| C zC/2-E/2| G G3/2 A/2| G D E| C3-| C z G|\
 A c3/2 G/2| d A F| A G2-| G z G| A c3/2 G/2| B A F| G3-| G z G| A c3/2 A/2|\
 G A G| E C2-| C z C/2E/2| G G3/2 G/2| G D E| C3-| C z||
